X:1
T:St. George’s, Bolton, 76.76 D
T:St. George’s, Bolton, 76.76 D
T:James Walch, 1875
T:Public Domain Courtesy of the Cyber Hymnal™
C:James Walch, 1875
Z:Public Domain
Z:Courtesy of the Cyber Hymnal™
%%score ( 1 2 ) ( 3 4 )
L:1/8
Q:1/4=115
M:4/4
K:Db
V:1 treble 
V:2 treble 
V:3 bass 
V:4 bass 
V:1
 [DF]2 | [CF]2 [CE]2 [CA]2 [A,C]2 | [A,E]4 [A,D]2 [DA]2 | [DB]2 [Dd]2 [Dc]2 [DB]2 | [DA]6 [DF]2 | %5
 [CF]2 [CE]2 [CG]2 C2 | [B,E]4 [B,D]2 [B,F]2 | [CE]2 [CA]2 [FA]2 =G2 | [CA]6 [EA]2 | %9
 [EA]3 [EA] [EB]2 [Ec]2 | [Dd]4 [DA]2 [DA]2 | [=DB]3 [D_c] [EB]2 [DF]2 | [EG]6 [CB]2 | %13
 A3 z A [Fd]2 [Ad]2 | [Gd]4 [Ec]2 [=EB]2 | [FA]2 D2 E3 z F | D6 |] %17
V:2
 x2 | x8 | x8 | x8 | x8 | x6 C2 | x8 | x6 (ED) | x8 | x8 | x8 | x8 | x8 | D2 D2 x5 | x8 | %15
 x2 D2 D2 C2 x | D6 |] %17
V:3
 [D,A,]2 | [A,,A,]2 [A,,A,]2 [A,,E,]2 [A,,G,]2 | [D,G,]4 [D,F,]2 [D,F,]2 | %3
 G,2 [G,B,]2 [G,,A,]2 [G,,G,]2 | [D,F,]6 [D,A,]2 | [A,,A,]2 [A,,A,]2 [A,,E,]2 [A,,G,]2 | %6
 [B,,G,]4 [B,,F,]2 [D,=G,]2 | [C,A,]2 [F,A,]2 [D,B,]2 [E,B,]2 | [A,,A,]6 [A,C]2 | %9
 [G,C]3 [G,C] [G,B,]2 [G,A,]2 | [F,A,]4 [D,F,]2 [_C,F,]2 | [B,,F,]3 [A,,F,] [G,,B,]2 [B,,B,]2 | %12
 [E,B,]6 [E,G,]2 | [F,A,]2 [D,F,]2 [D,A,]2 [D,_C]2 x | [G,B,]4 [G,C]2 [=G,D]2 | %15
 [A,D]2 [A,,F,]2 [A,,G,]2 [A,,G,]2 x | [D,F,]6 |] %17
V:4
 x2 | x8 | x8 | G,2 x6 | x8 | x8 | x8 | x8 | x8 | x8 | x8 | x8 | x8 | x9 | x8 | x9 | x6 |] %17

